X: 17551
T: Hindley Steel
R: hornpipe
M: 4/4
K: Gmajor
|:D|GBdB cege|dBGB AFDF|GBAc BGcB|AGAB A3 D|
GBdB ce g2|dBGB AF D2|GBAc Bedc|B2 A2 G3:|
|:B|dBdg egcg|dgBg eg c2|dBed cBAG|FAd^c d3 B|
GBdB ce g2|dBGB AF D2|GBAc Bedc|B2 A2 G3:|

